packages/ui-icons/svg/Line/assignment.svg

<svg viewBox="0 0 1920 1920" version="1.1" xmlns="http://www.w3.org/2000/svg">
    <path d="M1468.2137,0 L1468.2137,564.697578 L1355.27419,564.697578 L1355.27419,112.939516 L112.939516,112.939516 L112.939516,1807.03225 L1355.27419,1807.03225 L1355.27419,1581.15322 L1468.2137,1581.15322 L1468.2137,1919.97177 L2.5243549e-29,1919.97177 L2.5243549e-29,0 L1468.2137,0 Z M1597.64239,581.310981 C1619.77853,559.174836 1655.46742,559.174836 1677.60356,581.310981 L1677.60356,581.310981 L1903.4826,807.190012 C1925.5058,829.213217 1925.5058,864.902104 1903.4826,887.038249 L1903.4826,887.038249 L1225.8455,1564.67534 C1215.22919,1575.17872 1200.88587,1581.16451 1185.86491,1581.16451 L1185.86491,1581.16451 L959.985883,1581.16451 C928.814576,1581.16451 903.516125,1555.86606 903.516125,1524.69475 L903.516125,1524.69475 L903.516125,1298.81572 C903.516125,1283.79477 909.501919,1269.45145 920.005294,1258.94807 L920.005294,1258.94807 Z M1442.35055,896.29929 L1016.45564,1322.1942 L1016.45564,1468.225 L1162.48643,1468.225 L1588.38135,1042.33008 L1442.35055,896.29929 Z M677.637094,1242.34597 L677.637094,1355.28548 L338.818547,1355.28548 L338.818547,1242.34597 L677.637094,1242.34597 Z M903.516125,1016.46693 L903.516125,1129.40645 L338.818547,1129.40645 L338.818547,1016.46693 L903.516125,1016.46693 Z M1637.62298,701.026867 L1522.19879,816.451052 L1668.22958,962.481846 L1783.65377,847.057661 L1637.62298,701.026867 Z M1129.39516,338.829841 L1129.39516,790.587903 L338.818547,790.587903 L338.818547,338.829841 L1129.39516,338.829841 Z M1016.45564,451.769356 L451.758062,451.769356 L451.758062,677.648388 L1016.45564,677.648388 L1016.45564,451.769356 Z" stroke="none" stroke-width="1" fill-rule="evenodd"/>
</svg>

<svg viewBox="0 0 1920 1920" xmlns="http://www.w3.org/2000/svg">
    <path d="M1468.214 0v564.698h-112.94V112.94H112.94v1694.092h1242.334v-225.879h112.94v338.819H0V0h1468.214Zm129.428 581.311c22.137-22.136 57.825-22.136 79.962 0l225.879 225.879c22.023 22.023 22.023 57.712 0 79.848l-677.638 677.637c-10.616 10.504-24.96 16.49-39.98 16.49h-225.88c-31.17 0-56.469-25.299-56.469-56.47v-225.88c0-15.02 5.986-29.364 16.49-39.867Zm-155.291 314.988-425.895 425.895v146.031h146.03l425.895-425.895-146.03-146.03Zm-764.714 346.047v112.94H338.82v-112.94h338.818Zm225.88-225.88v112.94H338.818v-112.94h564.697Zm734.106-315.44-115.424 115.425 146.03 146.03 115.425-115.423-146.031-146.031ZM1129.395 338.83v451.758H338.82V338.83h790.576Zm-112.94 112.94H451.759v225.878h564.698V451.77Z" fill-rule="evenodd"/>
</svg>
